X:9
T: Die wiedergefundene Schwester (Suedeli - Ballade)
N: Q0072H
O: Mitteleuropa, Deutschland / Frankreich, Lothringen, Walschbronn
R: Ballade, Entfuehrung, Adelige als Dienstmagd, Rueckkehr
M: 3/8
L: 1/8
K: G
G | GBB | BAG | A2B | Az
B | BAG | A2d | cBA | Gz
B | d2B | ded | cBA | Gz
G | BBc | d2B | ABA | Gz

@@@ Tune index: 1064
